X: 7
T: The Rocky Road To Dublin
R: slip jig
M: 9/8
L: 1/8
K: Ador
|:e3 d2B A3|E2A A2G Bcd|e3 d2B A2c|B2G G2A Bcd|
e3 d2B A3|E2A A2G Bcd|e3 d2B A2c|B2G G2A Bcd||
e2a a2f g3|e2a a2A Bcd|e2a a2f g2e|d2B G2A Bcd|
e2a a2f g3|e2a a2A Bcd|e2a a2f g2e|d2B G2A Bcd||


Tune 593	Setting 13599

